X: 25319
T: Manga Takk
R: reel
M: 4/4
K: Dmixolydian
D2cB cBAG|Az~A2 cBAG|FGAD ABde|cBAG E2DC|
D2cB cBAG|Az~A2 cBAG|FGAD ABde|cBAG ABde||
efdc ABcA|ffdc Afg2-|gffe edAB|BcAG E2de|
efdc ABcA|ffdc Afg2-|gffe edAB|c2B2 AGEC||

